X: 23619
T: Lilting Fisherman, The
R: reel
M: 4/4
K: Gmajor
DE|G2~G2 G2Bd|egdB cABA|GE~E2 G2Bd|gedB cABA|
GBAF G2Bd|egdB cABA|GE~E2 G2Bd|gedB ~c3d||
eg~g2 ~a3e|gedB cAA2|eg~g2 eaab|(3c'ba b^g aba=g|
eg~g2 eaaf|gedB cABA|GE~E2 G2Bd|egdB ~c3d|
eg~g2 ~a3e|gedB cAA2|eg~g2 eaab|(3c'ba b^g abab|
c'aba agef|gedB cABA|GE~E2 G2Bd|egdB cABA||

